remix/Editor/paragraph.svg

<svg viewBox="0 0 24 24" fill="currentColor" xmlns="http://www.w3.org/2000/svg"><path d="M12 6V21H10V16C6.68629 16 4 13.3137 4 10C4 6.68629 6.68629 4 10 4H20V6H17V21H15V6H12ZM10 6C7.79086 6 6 7.79086 6 10C6 12.2091 7.79086 14 10 14V6Z"/></svg>

<svg viewBox="0 0 24 24" xmlns="http://www.w3.org/2000/svg"><path fill="none" d="M0 0h24v24H0Z"/><path d="M12 6v15h-2v-5 0c-3.32 0-6-2.69-6-6 0-3.32 2.68-6 6-6h10v2h-3v15h-2V6h-3Zm-2 0v0c-2.21 0-4 1.79-4 4 0 2.2 1.79 4 4 4V6Z"/></svg>
